X: 1
T: John McHugh's
M: 6/8
L: 1/8
R: jig
K: Gmaj
B3 ded | BAB G2 B | AGE DEG | AGE D3 |
B3 ded | BAB GAB | AEE DEG |1 AGF G2 A :|2 AGF G2 c ||
BAB GAB | cBc ABc | BAB GcB | ABc d2 c |
BAB GAB | c3 B3 | AGE DEG | AGF G2 c |
BAB GAB | cBc ABc | BAB GcB | ABc d2 c |
BdG G2 B | c2 E BcB | AGE DEG | AGF G3 |
